X:06
T:Braes of Arranmore. MBe.06
S:Matthew Betham MS, Towcett Cumbria, 1815
O:England;Cumbria;Towcett
Z:VMP – Hugh Taylor, 2012
T:Some Say the Devil’s Dead,aka. MBe.06
T:Braes of Mar,aka. MBe.06
T:Love Won’t You Marry Me,aka. MBe.06
T:Sir Alexander McDonald,aka. MBe.06
M:C
L:1/8
Q:1/2=80
R:.Reel
K:D
A|FAAB defe|dB (c/B/A) dB (c/B/A)|FAAB defe|edf”^dotted in MS”d e2 d:|!\
“rest added”z|faag fdad|gbbd gebe|faag fdad|gbfa e3 d|!
faaf fdad|fbbf gebe|faef deBd|BdF”^dotted in MS”f E2 D|]

